arcticons-dark/symbolic/devices/audio-headphones-symbolic.svg

<?xml version="1.0" encoding="UTF-8" standalone="no"?>
<svg
   id="b"
   viewBox="0 0 48 48"
   version="1.1"
   sodipodi:docname="audio-headphones.svg"
   xmlns:inkscape="http://www.inkscape.org/namespaces/inkscape"
   xmlns:sodipodi="http://sodipodi.sourceforge.net/DTD/sodipodi-0.dtd"
   xmlns="http://www.w3.org/2000/svg"
   xmlns:svg="http://www.w3.org/2000/svg">
  <sodipodi:namedview
     id="namedview1"
     pagecolor="#ffffff"
     bordercolor="#666666"
     borderopacity="1.0"
     inkscape:showpageshadow="2"
     inkscape:pageopacity="0.0"
     inkscape:pagecheckerboard="0"
     inkscape:deskcolor="#d1d1d1" />
  <defs
     id="defs1">
    <style
       id="style1">.c{fill:none;stroke:#fff;stroke-width:2px;stroke-linecap:round;stroke-linejoin:round;}</style>
  </defs>
  <path
     style="color:#000000;fill:#ffffff;stroke-linecap:round;stroke-linejoin:round;-inkscape-stroke:none"
     d="M 24,1.5 C 11.585476,1.5 1.5,11.58547 1.5,24 c 0,1.657985 0.2196505,3.257234 0.5625,4.8125 a 1,1 0 0 0 0.00391,0.09375 1,1 0 0 0 0.033203,0.0293 c 0.899205,3.968765 2.8061747,7.559914 5.4921875,10.427734 a 1.0001,1.0001 0 0 0 1.1523437,0.222656 l 3.2167974,-1.501953 c 1.490931,-0.695202 2.146357,-2.495431 1.451171,-3.986328 L 10.242188,27.300781 C 9.5469854,25.80985 7.7467565,25.154423 6.2558594,25.849609 L 3.7910156,26.998047 C 3.6447923,26.01353 3.5,25.02645 3.5,24 3.5,12.666354 12.666348,3.5 24,3.5 c 11.333646,0 20.5,9.166354 20.5,20.5 0,1.02645 -0.144792,2.01353 -0.291016,2.998047 l -2.464843,-1.148438 c -1.490874,-0.695175 -3.291037,-0.03963 -3.986329,1.451172 l -3.169921,6.796875 c -0.695176,1.490874 -0.03963,3.291037 1.451171,3.986328 l 3.216797,1.501953 a 1.0001,1.0001 0 0 0 1.152344,-0.222656 c 2.686013,-2.86782 4.592983,-6.458969 5.492188,-10.427734 a 1,1 0 0 0 0.0332,-0.0293 1,1 0 0 0 0.03516,-0.195313 C 46.296778,27.187974 46.5,25.620728 46.5,24 46.5,11.58547 36.41453,1.5 24,1.5 Z M 7.8671875,27.623047 c 0.238533,0.08682 0.4433015,0.267804 0.5625,0.523437 l 3.1699215,6.796875 c 0.238413,0.511301 0.02689,1.089728 -0.484375,1.328125 L 8.6152344,37.4375 C 6.5248504,35.048361 5.006199,32.18288 4.1992187,29.015625 l 2.9023438,-1.353516 c 0.2556504,-0.119206 0.527092,-0.125877 0.765625,-0.03906 z m 32.2656245,0 c 0.238525,-0.08682 0.509964,-0.08015 0.765625,0.03906 l 2.902344,1.353516 c -0.806943,3.167462 -2.325517,6.032605 -4.416015,8.421875 l -2.5,-1.166016 c -0.511394,-0.238507 -0.722799,-0.816801 -0.484375,-1.328125 l 3.169921,-6.796875 c 0.119254,-0.255696 0.323976,-0.436618 0.5625,-0.523437 z"
     id="path1" />
</svg>

<?xml version="1.0" encoding="UTF-8"?>
<svg id="b" version="1.1" viewBox="0 0 48 48" xmlns="http://www.w3.org/2000/svg">
 <defs id="defs4">
  <style id="style2">.c{fill:none;stroke:#fff;stroke-width:2px;stroke-linecap:round;stroke-linejoin:round;}</style>
 </defs>
 <path id="path6" d="m24 1.5c-12.415 0-22.5 10.085-22.5 22.5 0 1.658 0.21965 3.2572 0.5625 4.8125a1 1 0 0 0 0.00391 0.09375 1 1 0 0 0 0.033203 0.0293c0.8992 3.9688 2.8062 7.5599 5.4922 10.428a1.0001 1.0001 0 0 0 1.1523 0.22266l3.2168-1.502c1.4909-0.6952 2.1464-2.4954 1.4512-3.9863l-3.1699-6.7969c-0.6952-1.4909-2.4954-2.1464-3.9863-1.4512l-2.4648 1.1484c-0.14622-0.98452-0.29102-1.9716-0.29102-2.998 0-11.334 9.1663-20.5 20.5-20.5 11.334 0 20.5 9.1664 20.5 20.5 0 1.0264-0.14479 2.0135-0.29102 2.998l-2.4648-1.1484c-1.4909-0.69518-3.291-0.03963-3.9863 1.4512l-3.1699 6.7969c-0.69518 1.4909-0.03963 3.291 1.4512 3.9863l3.2168 1.502a1.0001 1.0001 0 0 0 1.1523-0.22266c2.686-2.8678 4.593-6.459 5.4922-10.428a1 1 0 0 0 0.0332-0.0293 1 1 0 0 0 0.03516-0.19531c0.32803-1.523 0.53125-3.0902 0.53125-4.7109 0-12.415-10.085-22.5-22.5-22.5zm-16.133 26.123c0.23853 0.08682 0.4433 0.2678 0.5625 0.52344l3.1699 6.7969c0.23841 0.5113 0.02689 1.0897-0.48438 1.3281l-2.5 1.166c-2.0904-2.3891-3.609-5.2546-4.416-8.4219l2.9023-1.3535c0.25565-0.11921 0.52709-0.12588 0.76562-0.03906zm32.266 0c0.23852-0.08682 0.50996-0.08015 0.76562 0.03906l2.9023 1.3535c-0.80694 3.1675-2.3255 6.0326-4.416 8.4219l-2.5-1.166c-0.51139-0.23851-0.7228-0.8168-0.48438-1.3281l3.1699-6.7969c0.11925-0.2557 0.32398-0.43662 0.5625-0.52344z" color="#000000" fill="#fff" stroke-linecap="round" stroke-linejoin="round" style="-inkscape-stroke:none"/>
</svg>
